images/singl-page/inc-social.svg

<svg width="18" height="18" viewBox="0 0 18 18" fill="none" xmlns="http://www.w3.org/2000/svg">
<path d="M4.74965 6.02051H1.34032C1.18901 6.02051 1.06641 6.14115 1.06641 6.28992V17.0625C1.06641 17.2113 1.18901 17.3319 1.34032 17.3319H4.74965C4.90096 17.3319 5.02357 17.2113 5.02357 17.0625V6.28992C5.02357 6.14115 4.90096 6.02051 4.74965 6.02051Z" fill="#161616"/>
<path d="M3.04661 0.666016C1.80609 0.666016 0.796875 1.65756 0.796875 2.87632C0.796875 4.09563 1.80609 5.08755 3.04661 5.08755C4.28613 5.08755 5.29453 4.09557 5.29453 2.87632C5.29458 1.65756 4.28613 0.666016 3.04661 0.666016Z" fill="#161616"/>
<path d="M13.4216 5.75293C12.0523 5.75293 11.0401 6.3319 10.4261 6.98974V6.29008C10.4261 6.14131 10.3035 6.02067 10.1522 6.02067H6.8872C6.73589 6.02067 6.61328 6.14131 6.61328 6.29008V17.0627C6.61328 17.2115 6.73589 17.3321 6.8872 17.3321H10.2891C10.4404 17.3321 10.563 17.2115 10.563 17.0627V11.7327C10.563 9.93668 11.059 9.23696 12.3319 9.23696C13.7183 9.23696 13.8285 10.3587 13.8285 11.8251V17.0627C13.8285 17.2116 13.9511 17.3321 14.1024 17.3321H17.5055C17.6568 17.3321 17.7794 17.2116 17.7794 17.0627V11.1538C17.7794 8.48309 17.2617 5.75293 13.4216 5.75293Z" fill="#161616"/>
</svg>

<svg width="18" height="18" fill="none" xmlns="http://www.w3.org/2000/svg"><path d="M4.75 6.02H1.34a.272.272 0 00-.274.27v10.773c0 .148.123.269.274.269h3.41c.151 0 .274-.12.274-.27V6.29a.272.272 0 00-.274-.27zM3.047.666c-1.24 0-2.25.992-2.25 2.21 0 1.22 1.01 2.212 2.25 2.212s2.248-.992 2.248-2.212c0-1.218-1.009-2.21-2.248-2.21zm10.375 5.087c-1.37 0-2.382.579-2.996 1.237v-.7a.272.272 0 00-.274-.27H6.887a.272.272 0 00-.274.27v10.773c0 .149.123.27.274.27h3.402a.272.272 0 00.274-.27v-5.33c0-1.796.496-2.496 1.769-2.496 1.386 0 1.496 1.122 1.496 2.588v5.238c0 .149.123.27.274.27h3.404c.15 0 .273-.121.273-.27v-5.91c0-2.67-.517-5.4-4.357-5.4z" fill="#161616"/></svg>
